X:1
T:Kumbaya My Lord
C:Traditional Spiritual
M:3/4
L:1/4
Q:1/4=80
K:C
!p!!espressivo! G, | (C2 C) | (E2 D) | (C2 A,) | G,3 |
G, | (C2 C) | (E2 D) | C3- | C2 z |
!mf! E | (G2 G) | (G2 E) | (E2 D) | (C2 A,) |
!p! G, | (C2 C) | (E2 D) | C3- | C2 z |]
w: Kum-ba-ya my Lord, kum-ba-ya. Kum-ba-ya my Lord, kum-ba-ya. Kum-ba-ya my Lord, kum-ba-ya. O Lord, kum-ba-ya.
